X: 401
T: Blackberry Blossom
C:Traditional
B: jims roots
B: ralph
M:4/4
L:1/8
Q: 1/4=100
K:G
V:1 
%Q:480
ef |: "G"gabg "D"fgaf | "C"efge "G"dBGB | "C"cdec "G"BcdB |
"A"A^cef "D"d2 ef | "G"gabg "D"fgaf | "C"efge "G"dBAB |
"C"cBcd "G"efge |[1 "D"dBAF "G"G2 ef:|[2 "D"dBAF "G"G2 FG||
|:"Em"EGeB dBeB | EGeB dBAG | EGeB dBef |
"B7"gabg edBG | "Em"EGeB dBeB | EGeB dBAB |
"C"cBcd "G"efge |[1 "D"dBAF "G"G2FG:|[2 "D"dBAF "G"G4|]
% abcbook-tune_id 6298c2454e8e858872c94cf1


% abcbook-boost 0
% abcbook-tablature 
% abcbook-transpose 
% abcbook-lastupdated 1665486398434
% abcbook-soundfonts 
% abcbook-repeats 1


